X:1
T:Title
%%score ( 1 2 ) { 3 | 4 }
L:1/8
M:4/4
K:G
V:1 treble nm="Bright Piano"
V:2 treble 
V:3 bass nm="Bright Piano"
V:4 bass 
V:1
 z4 z2[Q:1/4=100] D2 | G2 z2 z4 | [Ec]2 [Dd]2 [DB]2 [DG]2 | [CE]2 [EA]2 [DG]2 [DF]2 | %4
 [DG]4 z2 [DB]2 | [DA]2 [EG]2 [DF]2 [DG]2 | [Dc]2 [DB]2 [DA]2 [DG]2 | [CE]2 [EA]2 [DG]2 [DF]2 | %8
[M:3/4] [DG]4 z2 |] %9
V:2
 z4 z2 z C | B,^C [DA]2 [DB]2 [Dd]2 | x8 | x8 | x8 | x8 | x8 | x8 |[M:3/4] x6 |] %9
V:3
 z4 z2 F,2 | G,2 F,2 G,2 G,2 | F,2 F,2 G,2 G,2 | G,2 C2 B,A,B,C | B,4 z2 G,2 | F,2 A,2 A,2 G,2 | %6
 F,2 G,2 F,2 G,2 | G,2 C2 B,2 A,C |[M:3/4] B,4 z2 |] %9
V:4
 z4 z2 D,2 | E,2 D,2 G,,2 B,,2 | A,,2 D,2 G,,2 B,,2 | C,B,, A,,2 D,2 D,2 | G,,4 z4 | %5
 D,2 ^C,2 D,=C, B,,2 | A,,2 G,,B,, D,2 B,,2 | C,B,, A,,2 D,2 D,2 |[M:3/4] G,,4 z2 |] %9

